X:4
T: Ban - chnoic ireann , S. 37
N: I0503
O: Irland
S: O BOYLE, Sean: 25 Irish Folksongs, Dublin 1976]
R: ???]
M: 2/4
L: 1/16
K: D
D2F2 | G2G4A2 | G2F2E2D2 | D4F2A2 | B4
d2B2 | A2F2E2D2 | B,2A,2B,2D2 | D8- | D4
D2F2 | G2G4A2 | G2F2E2D2 | D4D2F2 | B4
d2B2 | A2F2E2D2 | B,2A,2B,2D2 | D8- | D4
A2B2 | =c3Bc2d2 | =c2B2A2F2 | A4B2d2 | d4
A2B2 | =c3Bc2d2 | B4d2B2 | A2F2E2D2 | B,4
A2B2 | =c3Bc2d2 | =c2B2A2F2 | D4F2A2 | B4
d2B2 | A2F2E2D2 | B,2A,2B,2D2 | D8- | D4

@@@ Tune index: 7279
